images/decorative/trial/boy.svg

<svg width="78" height="89" viewBox="0 0 78 89" fill="none" xmlns="http://www.w3.org/2000/svg">
<path d="M37.7398 17.3806C36.391 16.6821 34.6284 17.2807 33.9478 18.6325C33.7029 19.1186 34.3398 19.7038 34.7326 19.2473C35.3308 18.5518 36.2693 18.1338 37.1656 18.4712C38.1573 18.8448 38.4954 19.9835 38.1799 20.9395C37.9606 21.6024 38.9763 21.8747 39.2044 21.2265C39.7065 19.8022 39.0878 18.0783 37.7398 17.3806Z" fill="#8DD9E5"/>
<path d="M52.9033 22.6115C51.2296 22.138 49.2425 23.3766 49.252 25.2211C49.2534 25.5156 49.6688 25.6481 49.813 25.3758C50.3071 24.4406 51.2857 23.6 52.4079 23.8301C53.6226 24.0787 54.0321 25.3913 53.8273 26.4856C53.7158 27.0872 54.5669 27.5622 54.8693 26.9325C55.6628 25.2803 54.6419 23.1036 52.9033 22.6115Z" fill="#8DD9E5"/>
<path d="M42.7458 24.3815C42.407 24.3511 42.9608 24.3756 42.5768 24.3445C42.4653 24.3349 42.3829 24.3312 42.2707 24.3593C42.0762 24.4103 41.8889 24.5287 41.7359 24.656C41.4131 24.9223 41.2047 25.2901 41.1172 25.7022C40.9394 26.5375 41.1908 27.4994 41.9807 27.9071C42.2314 28.0373 42.4609 27.9862 42.6722 27.8168C43.2413 27.361 42.3203 26.8202 42.2685 26.3415C42.2401 26.0825 42.3123 25.808 42.4281 25.5779C42.5287 25.3781 42.7101 25.262 42.8318 25.0955L42.9236 25.0474C43.2741 24.8868 43.0548 24.4089 42.7458 24.3815Z" fill="#8DD9E5"/>
<path d="M44.5756 29.5037C42.0719 29.2092 39.9114 28.6018 37.8019 27.1353C37.5257 26.9437 37.2007 27.3765 37.4456 27.6051C39.3474 29.3875 41.9415 30.5869 44.5756 30.4397C45.1804 30.4056 45.1563 29.5718 44.5756 29.5037Z" fill="#8DD9E5"/>
<path d="M74.864 28.3392C73.6435 28.8349 72.6014 28.2689 71.7431 27.4676C71.7751 27.3914 71.8174 27.3188 71.848 27.2426C72.0054 26.8424 71.703 26.5457 71.3569 26.485C71.2141 25.4047 71.3649 24.357 72.5475 23.7333C73.8839 23.0275 75.6976 23.5972 76.1756 25.0962C76.5683 26.3266 76.102 27.8375 74.864 28.3392ZM50.1074 32.4478C41.2439 34.5787 31.3332 29.6813 30.7503 19.7105C30.5703 16.634 31.2822 13.8424 32.5968 11.3741C35.706 12.2494 38.8509 12.3234 41.9959 11.8447C41.2599 12.7044 40.4795 13.3814 39.3952 14.148C38.915 14.4876 38.9296 15.3155 39.5658 15.4768C43.9786 16.5941 48.2296 16.5341 52.4129 15.152C51.6959 15.8364 50.8507 16.3736 49.8713 16.7339C49.1696 16.9914 49.1674 17.9296 49.8713 18.1878C53.8819 19.6594 57.9537 19.7815 61.9964 18.4401C61.4339 25.0222 56.7165 30.8592 50.1074 32.4478ZM52.7561 39.6596C50.9133 39.2696 49.064 38.9012 47.1978 38.6577C47.1986 37.4376 47.1876 36.2168 47.1541 34.9945C48.1378 34.9353 49.1222 34.8051 50.0972 34.5935C50.9126 34.4167 51.7032 34.1821 52.4683 33.9002C52.6344 35.8461 52.9048 37.6907 52.7561 39.6596ZM43.7024 58.0369C39.6095 57.5945 35.6047 56.6742 31.7486 55.1849C27.7722 53.6473 22.4785 51.3425 19.5135 48.1195C18.8475 47.3959 18.5546 47.6349 18.8154 46.6812C18.9531 46.1795 21.3308 44.4778 21.7337 44.1085C23.1707 42.7945 24.5705 41.442 25.9265 40.0443C28.753 37.1284 31.7413 34.0585 33.7065 30.453C36.7487 33.2498 40.8752 34.8362 45.1685 35.013C45.3805 42.7383 44.8989 50.4073 43.7024 58.0369ZM26.4439 29.7968C27.6731 28.3858 28.9651 27.0288 30.1798 25.6008C30.8873 27.1457 31.8258 28.5212 32.9523 29.7087C32.0473 30.513 31.1795 31.3631 30.3284 32.2318C29.1509 31.281 27.7999 30.4915 26.4439 29.7968ZM42.6335 2.10323C42.7384 2.30448 42.9388 2.44653 43.2579 2.4236C51.0962 1.85166 59.4118 4.72467 61.5854 13.3267C61.8638 14.4291 62.0124 15.5345 62.0467 16.6288L61.874 16.6718C58.5527 17.8571 55.3866 18.082 52.1083 17.2777C53.3879 16.4735 54.373 15.3977 55.1615 13.9105C55.5214 13.2305 54.8161 12.6082 54.1756 12.9094C50.1016 14.8205 45.742 15.3932 41.4071 14.4469C42.5293 13.5176 43.4598 12.4558 44.3028 11.1692C44.6599 10.6246 44.0711 9.94611 43.494 10.1007C39.917 11.0582 36.6518 11.0892 33.0478 10.5906C35.2396 6.94954 38.754 4.06543 42.6335 2.10323ZM33.3699 85.3945C33.6664 85.3969 33.9594 85.4406 34.2465 85.5235C35.107 85.6463 35.2666 86.0183 34.7237 86.642C34.3594 87.49 34.2574 87.3923 33.4683 87.3686C32.9013 87.3519 32.3381 87.2836 31.7836 87.166C30.9951 86.9986 30.2541 86.7145 29.5422 86.3535C29.5939 86.2738 29.6369 86.1819 29.6646 86.0718C30.4858 85.8076 31.2902 85.5307 32.1661 85.433C32.564 85.3888 32.9706 85.3689 33.3699 85.3945ZM4.6479 75.4311C3.94764 75.1531 2.27462 74.4095 2.00282 73.6282C1.79515 73.0296 2.47135 73.321 2.85317 73.4572C3.35814 73.6363 3.8223 73.8797 4.27408 74.1666C5.04064 74.6507 5.62285 75.2722 6.24003 75.8988C5.70154 75.7707 5.16671 75.637 4.6479 75.4311ZM20.444 8.16814C19.4625 7.78636 18.7396 6.95545 18.7491 5.8175C18.7615 4.36804 20.0775 3.36474 21.3468 3.02957C23.0162 2.58859 24.8306 3.16349 24.4954 5.24482C24.2068 7.04128 22.8187 8.51737 20.9606 7.78635C20.6451 7.66279 20.4549 7.90326 20.444 8.16814ZM77.6308 24.1906C76.6449 21.9709 73.8089 21.1688 71.7497 22.3475C70.1706 23.2494 69.1381 25.7466 69.9054 27.5149C67.8243 29.6192 66.0777 31.776 63.3962 33.3423C60.6272 34.959 57.6564 35.6663 54.5771 36.2856C54.529 35.2254 54.3796 34.1821 54.0597 33.2239C61.1359 29.7997 65.4357 21.9058 63.8902 13.7203C62.3447 5.53189 53.401 -1.5304 45.1197 0.288261C45.0381 0.234248 44.9295 0.210567 44.8005 0.237203C35.252 2.229 27.5813 10.6904 28.8864 21.0349C29.0241 22.13 29.2748 23.1599 29.6048 24.1388L29.4555 24.2557C28.9381 24.8609 28.4106 25.4669 27.8764 26.0662C27.8597 25.9286 27.8152 25.7873 27.7052 25.6489C23.5576 20.4534 21.8511 15.7469 21.6237 9.12927C23.7157 9.78777 25.6248 7.51407 25.9957 5.23963C26.3287 3.199 25.4237 1.15837 22.3028 1.2368C20.0258 1.29525 17.5206 2.80094 17.1832 5.25295C16.9202 7.16336 18.1407 9.4341 20.1117 9.62499C19.2745 15.7609 21.9414 22.8543 26.7084 26.6603C26.8643 26.7854 27.0268 26.8313 27.1806 26.8349C26.3105 27.7687 25.4004 28.661 24.4123 29.4475C23.9511 29.8153 24.1544 30.5833 24.5901 30.8518C26.0606 31.7553 27.6578 32.686 29.3024 33.2979C26.6282 36.1258 24.0983 39.1268 21.2674 41.7868C19.05 43.8696 14.447 46.1514 17.6291 49.1613C17.8864 49.404 18.1574 49.6341 18.4234 49.8686C16.104 52.3866 14.0805 55.1783 12.0628 57.9468C10.9487 59.4754 7.34906 62.9108 7.44088 64.887C7.51301 66.44 9.73838 67.7362 10.8518 68.514C11.3123 68.836 11.786 69.1282 12.2676 69.4042C11.1841 70.3542 10.2477 71.4935 9.28733 72.5626C8.6002 73.3271 7.70466 74.0979 7.01316 74.9496C5.45307 73.1368 1.20711 69.9877 0.118473 72.63C-0.477579 74.0765 1.31714 75.369 2.34748 76.0039C3.62192 76.7913 5.1769 77.3231 6.68088 77.1708C6.86013 77.2387 7.06926 77.2404 7.28641 77.1176C8.63372 76.3546 9.64365 74.7415 10.6317 73.5557C11.5761 72.4213 12.562 71.2507 13.2688 69.9412C14.9025 70.7536 16.6374 71.3285 18.4474 71.6608C18.6857 71.7051 18.8883 71.6496 19.0537 71.5453C19.1892 71.5727 19.3342 71.5476 19.4545 71.4261C21.2084 69.6438 23.0075 67.5654 24.3533 65.4449C24.7665 64.7922 23.8236 64.0584 23.2967 64.6177C21.7622 66.2478 20.3587 68.2305 19.1492 70.1678C19.0734 70.1172 18.9932 70.0701 18.8861 70.0441C16.7183 69.4958 14.6292 68.7854 12.7208 67.5744C11.8399 67.0142 10.0255 66.1639 9.77918 65.2319C9.51322 64.2211 10.306 63.5781 11.0959 62.4659C13.8707 58.558 16.7839 54.6699 19.0756 50.4413C25.1432 55.5112 33.219 58.4809 40.9976 59.7049C39.1577 64.7131 37.7929 70.2149 36.5563 75.4395H36.5556C33.6992 75.5126 29.959 75.4068 27.4706 73.7213C26.1597 72.8319 26.9576 71.8132 27.3809 70.3955C27.8575 68.8024 28.3304 67.2148 28.6656 65.5853C29.744 65.6322 30.8166 65.4657 31.8069 65.0289C32.3876 64.7737 32.1027 63.7425 31.4804 63.8061C27.5828 64.2032 24.5595 63.5359 21.9356 60.3471C21.5363 59.8616 20.7952 60.4838 21.0903 61.0092C22.3458 63.2437 24.8189 64.9327 27.4261 65.4382C26.6435 67.3108 26.0191 69.2478 25.4004 71.1828C25.0208 72.3666 24.4473 73.5956 25.5053 74.5522C26.6319 75.5695 28.6772 76.1282 30.1441 76.4944C29.2339 79.4416 28.6037 82.5711 28.0251 85.6027C27.9938 85.7645 28.0076 85.912 28.0462 86.0434C27.644 86.3579 27.5106 87.0564 28.0841 87.3871C29.9014 88.4371 37.1211 90.8071 36.8646 86.5631C36.6686 83.3408 32.5822 83.5457 30.0071 84.5957C30.5987 82.0177 31.146 79.3844 31.4717 76.7779C33.1352 77.0887 34.8381 77.1921 36.5192 77.0271C36.7946 77.2898 37.2624 77.341 37.446 76.9095C39.6816 71.6608 41.7583 65.607 42.5817 59.9303C43.2368 60.0141 43.8897 60.0887 44.536 60.148C44.9295 60.1841 45.4294 59.8113 45.4964 59.4066C46.5522 52.9473 47.1148 46.4584 47.1869 39.9318C49.182 40.5489 51.2238 41.0143 53.2567 41.4782C53.6531 41.5692 54.2054 41.3584 54.2747 40.8915C54.4452 39.7469 54.5807 38.492 54.5939 37.2349C60.4954 37.5723 68.1216 34.0193 71.1762 28.6166C72.1373 29.9344 74.3503 30.3095 75.7435 29.7228C77.8071 28.8541 78.5052 26.1579 77.6308 24.1906Z" fill="#8DD9E5"/>
</svg>

<svg width="78" height="89" fill="none" xmlns="http://www.w3.org/2000/svg"><path d="M37.74 17.38c-1.349-.698-3.112-.1-3.792 1.253-.245.486.392 1.07.785.614.598-.695 1.536-1.113 2.433-.776.991.374 1.33 1.512 1.014 2.468-.22.663.796.936 1.024.288.502-1.425-.116-3.149-1.464-3.846ZM52.903 22.611c-1.673-.473-3.66.766-3.651 2.61.001.295.417.427.561.155.494-.935 1.473-1.776 2.595-1.546 1.215.249 1.624 1.561 1.42 2.656-.112.601.739 1.076 1.041.447.794-1.653-.227-3.83-1.966-4.322ZM42.746 24.381c-.339-.03.215-.005-.17-.037a.84.84 0 0 0-.305.015c-.195.051-.382.17-.535.297a1.831 1.831 0 0 0-.619 1.046c-.178.835.074 1.797.864 2.205.25.13.48.08.691-.09.57-.456-.352-.997-.403-1.476a1.407 1.407 0 0 1 .16-.763c.1-.2.281-.316.403-.482l.092-.049c.35-.16.13-.638-.178-.666ZM44.576 29.504c-2.504-.295-4.665-.902-6.774-2.369-.276-.191-.601.241-.356.47 1.901 1.782 4.495 2.982 7.13 2.835.604-.034.58-.868 0-.936Z" fill="#8DD9E5"/><path d="M74.864 28.34c-1.22.495-2.263-.071-3.12-.872.031-.077.073-.15.104-.225.157-.4-.145-.697-.491-.758-.143-1.08.008-2.128 1.19-2.752 1.337-.706 3.15-.136 3.629 1.363.392 1.23-.074 2.741-1.312 3.243Zm-24.757 4.108c-8.863 2.13-18.774-2.767-19.357-12.738-.18-3.076.532-5.868 1.847-8.336 3.109.875 6.254.95 9.399.47-.736.86-1.517 1.537-2.6 2.304-.481.34-.466 1.168.17 1.329 4.413 1.117 8.664 1.057 12.847-.325a7.296 7.296 0 0 1-2.542 1.582.765.765 0 0 0 0 1.454c4.01 1.471 8.083 1.594 12.125.252-.562 6.582-5.28 12.42-11.889 14.008Zm2.65 7.212c-1.844-.39-3.693-.759-5.56-1.002.002-1.22-.01-2.441-.043-3.663.984-.06 1.968-.19 2.943-.401a17.711 17.711 0 0 0 2.371-.694c.166 1.946.437 3.79.288 5.76Zm-9.055 18.377c-4.093-.443-8.097-1.363-11.953-2.852-3.977-1.538-9.27-3.843-12.235-7.066-.666-.723-.96-.484-.699-1.438.138-.502 2.516-2.203 2.919-2.572a97.602 97.602 0 0 0 4.192-4.065c2.827-2.916 5.815-5.985 7.78-9.591 3.043 2.797 7.17 4.383 11.462 4.56.212 7.725-.27 15.394-1.466 23.024Zm-17.258-28.24c1.23-1.411 2.521-2.768 3.736-4.196a15.062 15.062 0 0 0 2.772 4.108 52.737 52.737 0 0 0-2.624 2.523c-1.177-.951-2.528-1.74-3.884-2.435Zm16.19-27.694c.104.201.305.344.624.32 7.838-.571 16.154 2.302 18.327 10.904.279 1.102.427 2.207.462 3.302l-.173.043c-3.321 1.185-6.487 1.41-9.766.606 1.28-.804 2.265-1.88 3.053-3.367.36-.68-.345-1.303-.985-1.002-4.074 1.911-8.434 2.484-12.769 1.538 1.122-.93 2.053-1.991 2.896-3.278.357-.544-.232-1.223-.809-1.068-3.577.957-6.842.988-10.446.49 2.192-3.641 5.706-6.526 9.585-8.488ZM33.37 85.394c.296.003.59.047.877.13.86.122 1.02.494.477 1.118-.365.848-.467.75-1.256.727a9.459 9.459 0 0 1-1.684-.203 9.143 9.143 0 0 1-2.242-.813.926.926 0 0 0 .123-.281c.82-.264 1.625-.541 2.501-.639a6.94 6.94 0 0 1 1.204-.039ZM4.648 75.431c-.7-.278-2.373-1.022-2.645-1.803-.208-.598.468-.307.85-.17.505.178.97.422 1.421.709.767.484 1.349 1.105 1.966 1.732-.538-.128-1.073-.262-1.592-.468ZM20.444 8.168c-.982-.382-1.704-1.213-1.695-2.35.013-1.45 1.329-2.453 2.598-2.788 1.67-.441 3.484.133 3.148 2.215-.288 1.796-1.676 3.272-3.534 2.541-.316-.123-.506.117-.517.382Zm57.187 16.023c-.986-2.22-3.822-3.022-5.881-1.843-1.58.901-2.612 3.399-1.845 5.167-2.08 2.104-3.827 4.261-6.509 5.827-2.769 1.617-5.74 2.324-8.819 2.944-.048-1.06-.197-2.104-.517-3.062 7.076-3.424 11.376-11.318 9.83-19.504C62.345 5.532 53.401-1.53 45.12.288a.414.414 0 0 0-.32-.05C35.252 2.228 27.581 10.69 28.886 21.034a15.88 15.88 0 0 0 .719 3.104l-.15.117c-.517.605-1.044 1.21-1.579 1.81a.802.802 0 0 0-.17-.417c-4.148-5.196-5.855-9.902-6.082-16.52 2.092.659 4-1.615 4.372-3.89.333-2.04-.572-4.08-3.693-4.002-2.277.058-4.782 1.564-5.12 4.016-.263 1.91.958 4.181 2.929 4.372-.837 6.136 1.83 13.23 6.596 17.035a.764.764 0 0 0 .473.175c-.87.934-1.78 1.826-2.769 2.613-.46.367-.258 1.135.178 1.404 1.47.903 3.068 1.834 4.712 2.446-2.674 2.828-5.204 5.829-8.035 8.489-2.217 2.083-6.82 4.364-3.638 7.374.257.243.528.473.794.708-2.319 2.518-4.342 5.31-6.36 8.078-1.114 1.528-4.714 4.964-4.622 6.94.072 1.553 2.297 2.85 3.41 3.627.461.322.935.614 1.417.89-1.084.95-2.02 2.09-2.98 3.159-.688.764-1.583 1.535-2.275 2.387-1.56-1.813-5.806-4.962-6.895-2.32-.596 1.447 1.2 2.739 2.23 3.374 1.274.787 2.829 1.32 4.333 1.167.18.068.388.07.605-.053 1.348-.763 2.358-2.376 3.346-3.562.944-1.135 1.93-2.305 2.637-3.615a19.511 19.511 0 0 0 5.178 1.72.823.823 0 0 0 .607-.116c.135.028.28.003.4-.119 1.754-1.782 3.553-3.86 4.9-5.981.413-.653-.53-1.387-1.057-.827-1.535 1.63-2.938 3.613-4.148 5.55a.797.797 0 0 0-.263-.124c-2.168-.548-4.257-1.259-6.165-2.47-.881-.56-2.696-1.41-2.942-2.342-.266-1.01.527-1.654 1.317-2.766 2.775-3.908 5.688-7.796 7.98-12.025 6.067 5.07 14.143 8.04 21.922 9.264-1.84 5.008-3.205 10.51-4.442 15.734-2.857.074-6.597-.032-9.085-1.718-1.311-.89-.513-1.908-.09-3.326.477-1.593.95-3.18 1.285-4.81 1.078.047 2.15-.12 3.14-.556.582-.255.297-1.286-.326-1.223-3.897.397-6.92-.27-9.544-3.459-.4-.485-1.14.137-.846.662 1.256 2.235 3.729 3.924 6.336 4.43-.782 1.872-1.407 3.809-2.026 5.744-.38 1.184-.953 2.413.105 3.37 1.127 1.017 3.172 1.575 4.64 1.941-.911 2.948-1.541 6.077-2.12 9.109a.922.922 0 0 0 .021.44c-.402.315-.535 1.013.038 1.344 1.817 1.05 9.037 3.42 8.78-.824-.195-3.222-4.282-3.017-6.857-1.967.592-2.578 1.139-5.212 1.465-7.818 1.663.31 3.366.414 5.047.25.276.262.743.313.927-.119 2.236-5.248 4.312-11.302 5.136-16.979.655.084 1.308.159 1.954.218.393.036.893-.337.96-.741a129.39 129.39 0 0 0 1.69-19.475c1.996.617 4.038 1.082 6.07 1.546.397.091.95-.12 1.019-.587.17-1.144.306-2.399.319-3.656 5.901.337 13.528-3.216 16.582-8.618.961 1.317 3.174 1.692 4.567 1.106 2.064-.869 2.762-3.565 1.888-5.532Z" fill="#8DD9E5"/></svg>
